;FLAVOR:UltiGCode
;TIME:8153
;MATERIAL:4493
;MATERIAL2:0
;NOZZLE_DIAMETER:0.4
;Generated with Cura_SteamEngine 3.3.1
M82 ;absolute extrusion mode

G92 E0
G10
;LAYER_COUNT:264
;LAYER:0
M107
G0 F4320 X91.293 Y93.505 Z0.27
;TYPE:SKIRT
G11
G1 F1800 X91.694 Y93.157 E0.05017
G1 X92.142 Y92.874 E0.10025
G1 X92.628 Y92.66 E0.15043
G1 X93.14 Y92.523 E0.20052
G1 X93.797 Y92.461 E0.26288
G1 X109.703 Y92.461 E1.766
G1 X110.232 Y92.501 E1.81613
G1 X110.749 Y92.62 E1.86626
G1 X111.243 Y92.815 E1.91645
G1 X111.604 Y93.018 E1.95559
G1 X114.774 Y95.049 E2.31137
G1 X119.517 Y97.785 E2.82881
G1 X124.4 Y100.246 E3.34554
G1 X130.638 Y102.923 E3.98702
G1 X131.108 Y103.168 E4.03711
G1 X131.537 Y103.481 E4.08729
G1 X131.954 Y103.903 E4.14336
G1 X133.497 Y105.752 E4.37094
G1 X137.177 Y109.81 E4.88862
G1 X141.067 Y113.639 E5.40443
G1 X145.201 Y117.273 E5.92458
G1 X147.26 Y118.931 E6.17439
G1 X153.062 Y123.154 E6.85254
G1 X153.467 Y123.498 E6.90275
G1 X153.815 Y123.898 E6.95286
G1 X154.099 Y124.346 E7.00298
G1 X154.312 Y124.832 E7.05313
G1 X154.451 Y125.344 E7.10326
G1 X154.513 Y126.004 E7.16591
G1 X154.516 Y152.991 E9.71618
G1 X154.476 Y153.52 E9.76631
G1 X154.357 Y154.037 E9.81645
G1 X154.162 Y154.53 E9.86655
G1 X153.895 Y154.989 E9.91673
G1 X153.562 Y155.402 E9.96686
G1 X153.171 Y155.761 E10.01702
G1 X152.731 Y156.057 E10.06714
G1 X152.251 Y156.283 E10.11727
G1 X151.742 Y156.435 E10.16747
G1 X150.991 Y156.516 E10.23885
G1 X116.008 Y156.515 E13.54475
G1 X115.479 Y156.475 E13.59488
G1 X114.962 Y156.356 E13.64501
G1 X114.468 Y156.161 E13.6952
G1 X114.01 Y155.894 E13.7453
G1 X113.596 Y155.561 E13.79551
G1 X113.238 Y155.17 E13.84561
G1 X112.942 Y154.729 E13.8958
G1 X112.716 Y154.249 E13.94594
G1 X112.629 Y153.994 E13.9714
G1 X111.288 Y149.481 E14.4163
G1 X109.462 Y144.322 E14.93347
G1 X107.351 Y139.29 E15.44914
G1 X104.964 Y134.389 E15.9643
G1 X102.291 Y129.614 E16.48142
G1 X100.876 Y127.316 E16.73645
G1 X97.806 Y122.78 E17.25405
G1 X94.499 Y118.442 E17.76953
G1 X91.076 Y114.425 E18.26826
G1 X90.763 Y113.997 E18.31837
G1 X90.518 Y113.526 E18.36854
G1 X90.347 Y113.024 E18.41866
G1 X90.253 Y112.502 E18.46878
G1 X90.235 Y112.221 E18.49539
G1 X90.096 Y106.263 E19.05857
G1 X90.095 Y106.193 E19.06519
G1 X90.06 Y96.212 E20.0084
G1 X90.098 Y95.683 E20.05852
G1 X90.215 Y95.165 E20.1087
G1 X90.409 Y94.671 E20.15885
G1 X90.674 Y94.212 E20.20894
G1 X91.081 Y93.719 E20.26935
G1 X91.293 Y93.505 E20.29782
G0 F4320 X91.541 Y93.752
G1 F1800 X91.923 Y93.423 E20.34546
G1 X92.352 Y93.159 E20.39306
G1 X92.817 Y92.966 E20.44064
G1 X93.307 Y92.849 E20.48825
G1 X93.797 Y92.811 E20.53469
G1 X109.703 Y92.811 E22.03781
G1 X110.205 Y92.851 E22.0854
G1 X110.694 Y92.97 E22.13296
G1 X111.159 Y93.164 E22.18057
G1 X111.415 Y93.312 E22.20851
G1 X114.6 Y95.352 E22.56594
G1 X119.362 Y98.1 E23.0855
G1 X124.234 Y100.556 E23.6011
G1 X130.5 Y103.244 E24.24542
G1 X130.945 Y103.479 E24.29298
G1 X131.348 Y103.781 E24.34057
G1 X131.685 Y104.127 E24.38621
G1 X133.228 Y105.975 E24.61372
G1 X136.928 Y110.056 E25.13428
G1 X140.829 Y113.895 E25.65149
G1 X144.972 Y117.538 E26.17284
G1 X147.05 Y119.211 E26.42494
G1 X152.856 Y123.437 E27.10356
G1 X153.239 Y123.765 E27.15121
G1 X153.564 Y124.149 E27.19875
G1 X153.825 Y124.579 E27.24629
G1 X154.015 Y125.046 E27.29393
G1 X154.128 Y125.537 E27.34154
G1 X154.163 Y126.004 E27.3858
G1 X154.166 Y152.991 E29.93607
G1 X154.126 Y153.493 E29.98366
G1 X154.007 Y153.982 E30.03122
G1 X153.813 Y154.446 E30.07875
G1 X153.547 Y154.874 E30.12637
G1 X153.217 Y155.255 E30.174
G1 X152.831 Y155.578 E30.22156
G1 X152.399 Y155.837 E30.26916
G1 X151.931 Y156.024 E30.31679
G1 X151.44 Y156.134 E30.36434
G1 X150.991 Y156.166 E30.40688
G1 X116.008 Y156.165 E33.71277
G1 X115.506 Y156.125 E33.76036
G1 X115.017 Y156.006 E33.80792
G1 X114.552 Y155.812 E33.85553
G1 X114.124 Y155.546 E33.90315
G1 X113.744 Y155.216 E33.95071
G1 X113.42 Y154.83 E33.99834
G1 X113.162 Y154.398 E34.04589
G1 X112.964 Y153.894 E34.09706
G1 X111.618 Y149.363 E34.54373
G1 X109.789 Y144.197 E35.06161
G1 X107.669 Y139.144 E35.57944
G1 X105.278 Y134.235 E36.09545
G1 X102.586 Y129.425 E36.61634
G1 X101.173 Y127.13 E36.87102
G1 X98.095 Y122.581 E37.39006
G1 X94.762 Y118.21 E37.90951
G1 X91.343 Y114.198 E38.40764
G1 X91.047 Y113.79 E38.45527
G1 X90.82 Y113.341 E38.50282
G1 X90.667 Y112.861 E38.55043
G1 X90.585 Y112.213 E38.61215
G1 X90.446 Y106.255 E39.17534
G1 X90.445 Y106.192 E39.18129
G1 X90.41 Y96.211 E40.1245
G1 X90.448 Y95.709 E40.17207
G1 X90.565 Y95.219 E40.21968
G1 X90.758 Y94.754 E40.26726
G1 X91.023 Y94.325 E40.31491
G1 X91.329 Y93.966 E40.35949
G1 X91.541 Y93.752 E40.38795
G0 F4320 X93.868 Y96.15
;TYPE:SUPPORT
G1 F1800 X109.632 Y96.15 E41.87765
G1 X109.75 Y96.268 E41.89342
G1 X109.75 Y105.3 E42.74695
G1 X103.302 Y105.302 E43.35628
G1 X103.302 Y105.247 E43.36148
G1 X102.952 Y104.897 E43.40825
G1 X99.148 Y104.897 E43.76773
G1 X98.798 Y105.247 E43.81451
G1 X98.798 Y105.302 E43.8197
G1 X93.75 Y105.302 E44.29674
G1 X93.75 Y96.268 E45.15045
G1 X93.868 Y96.15 E45.16622
G0 F4320 X95.653 Y96.29
G1 F1800 X95.653 Y105.162 E46.00463
G0 F4320 X93.89 Y104.985
G1 F1800 X98.862 Y104.985 E46.47448
G0 F4320 X97.986 Y105.162
G1 F1800 X97.986 Y96.29 E47.31289
G0 F4320 X100.319 Y96.29
G1 F1800 X100.319 Y104.757 E48.11302
G0 F4320 X102.652 Y104.757
G1 F1800 X102.652 Y96.29 E48.91315
G0 F4320 X104.985 Y96.29
G1 F1800 X104.985 Y105.162 E49.75155
G0 F4320 X103.237 Y104.985
G1 F1800 X109.61 Y104.985 E50.3538
G0 F4320 X107.318 Y105.161
G1 F1800 X107.318 Y96.29 E51.19211
G0 F4320 X109.61 Y97.986
G1 F1800 X93.89 Y97.986 E52.67765
G0 F4320 X93.89 Y100.319
G1 F1800 X109.61 Y100.319 E54.16319
G0 F4320 X109.61 Y102.652
G1 F1800 X93.89 Y102.652 E55.64873
G10
G0 F4320 X100.627 Y105.483
G0 X101.059 Y105.798
G0 X101.938 Y106.694
G0 X128.325 Y111.275
;TYPE:WALL-INNER
G11
G1 F1800 X128.325 Y125.975 E57.03788
G1 X125.144 Y125.975 E57.33848
G1 X125.143 Y125.975 E57.33858
G1 X124.491 Y125.975 E57.40019
G1 X125.056 Y125.649 E57.43208
G1 X127.927 Y123.991 E57.74538
G1 X127.927 Y119.843 E58.13737
G1 X124.335 Y117.77 E58.52928
G1 X120.878 Y119.764 E58.90642
G1 X120.742 Y119.842 E58.92123
G1 X120.742 Y123.991 E59.31331
G1 X120.878 Y124.07 E59.32818
G1 X123.614 Y125.649 E59.6267
G1 X124.179 Y125.975 E59.68834
G1 X123.527 Y125.975 E59.72021
G1 X123.526 Y125.975 E59.7203
G1 X120.575 Y125.975 E59.99917
G1 X120.575 Y124.149 E60.17173
G1 X120.575 Y123.991 E60.18329
G1 X120.575 Y119.842 E60.37037
G1 X120.575 Y119.684 E60.38194
G1 X120.575 Y111.275 E61.17659
G1 X94.625 Y111.275 E63.62887
G1 X94.625 Y107.027 E64.0303
G1 X99.987 Y107.027 E64.53701
G1 X100.235 Y107.274 E64.57009
G1 X100.623 Y107.471 E64.61121
G1 X101.05 Y107.537 E64.65204
G1 X101.477 Y107.471 E64.69287
G1 X101.865 Y107.274 E64.73399
G1 X102.112 Y107.027 E64.767
G1 X128.2 Y107.025 E67.23232
G1 X128.375 Y107.025 E67.24885
G1 X128.375 Y107.2 E67.25956
G1 X128.375 Y111.275 E67.64464
G1 X128.325 Y111.275 E67.64937
G0 F4320 X128.675 Y111.625
G1 F1800 X128.675 Y126.325 E69.03852
G1 X120.225 Y126.325 E69.83704
G1 X120.225 Y111.625 E71.22619
G1 X94.275 Y111.625 E73.67847
G1 X94.275 Y106.677 E74.14606
G1 X100.172 Y106.677 E74.70332
G1 X100.21 Y106.755 E74.71152
G1 X100.443 Y106.987 E74.74259
G1 X100.732 Y107.134 E74.77323
G1 X101.05 Y107.183 E74.80364
G1 X101.368 Y107.134 E74.83404
G1 X101.657 Y106.987 E74.86469
G1 X101.887 Y106.757 E74.89542
G1 X101.928 Y106.677 E74.90392
G1 X128.55 Y106.675 E77.4197
G1 X128.725 Y106.675 E77.43623
G1 X128.725 Y106.85 E77.44694
G1 X128.725 Y111.625 E77.89817
G1 X128.675 Y111.625 E77.9029
G0 F4320 X128.605 Y111.555
G0 X121.006 Y119.994
G0 X121.092 Y120.044
G1 F1800 X121.092 Y123.789 E78.2568
G1 X124.335 Y125.661 E78.61066
G1 X127.577 Y123.789 E78.96443
G1 X127.577 Y120.045 E79.31824
G1 X124.335 Y118.174 E79.67197
G1 X121.092 Y120.044 E80.02573
G0 F4320 X121.417 Y120.232
;TYPE:WALL-OUTER
G1 F1800 X121.417 Y123.601 E80.3441
G1 X124.335 Y125.286 E80.66253
G1 X127.252 Y123.601 E80.98087
G1 X127.252 Y120.233 E81.29915
G1 X124.335 Y118.549 E81.61744
G1 X121.417 Y120.232 E81.93577
G0 F4320 X121.417 Y120.432
G0 X120.992 Y120.432
G0 X121.051 Y120.065
G0 X128.575 Y111.95
G0 X129 Y111.95
G1 F1800 X129 Y126.65 E83.32492
G1 X119.9 Y126.65 E84.18487
G1 X119.9 Y111.95 E85.57402
G1 X93.95 Y111.95 E88.02629
G1 X93.95 Y106.352 E88.55531
G1 X100.377 Y106.352 E89.16266
G1 X100.479 Y106.564 E89.18489
G1 X100.636 Y106.721 E89.20587
G1 X100.833 Y106.821 E89.22675
G1 X101.05 Y106.854 E89.24749
G1 X101.267 Y106.821 E89.26823
G1 X101.464 Y106.721 E89.28911
G1 X101.621 Y106.564 E89.31009
G1 X101.721 Y106.367 E89.33097
G1 X101.723 Y106.352 E89.3324
G1 X128.875 Y106.35 E91.89826
G1 X129.05 Y106.35 E91.9148
G1 X129.05 Y106.525 E91.9255
G1 X129.05 Y111.95 E92.43817
G1 X129 Y111.95 E92.44289
G0 F4320 X129 Y112.15
G0 X128.575 Y112.15
G0 X128.035 Y110.935
;TYPE:SKIN
G1 F1800 X127.985 Y110.935 E92.44762
G1 X127.985 Y119.484 E93.2555
G1 X124.335 Y117.378 E93.65372
G1 X120.915 Y119.35 E94.02679
G1 X120.915 Y110.935 E94.822
G1 X94.965 Y110.935 E97.27428
G1 X94.965 Y107.367 E97.61146
G1 X99.846 Y107.367 E98.07271
G1 X100.033 Y107.553 E98.09763
G1 X100.518 Y107.799 E98.14903
G1 X101.05 Y107.881 E98.19989
G1 X101.582 Y107.799 E98.25076
G1 X102.067 Y107.552 E98.3022
G1 X102.253 Y107.367 E98.32699
G1 X128.035 Y107.365 E100.76338
G1 X128.035 Y110.935 E101.10075
G0 F4320 X127.985 Y124.35
G1 F1800 X127.985 Y125.635 E101.22218
G1 X125.761 Y125.635 E101.43235
G1 X127.985 Y124.35 E101.67508
G0 F4320 X127.876 Y107.582
G0 X127.846 Y107.552
G1 F1800 X127.599 Y107.8 E101.7159
G1 X127.937 Y108.138
G0 F4320 X127.876 Y108.572
G1 F1800 X126.827 Y107.523 E101.8561
G1 X126.766 Y107.462
G0 F4320 X126.332 Y107.523
G1 F1800 X127.876 Y109.066 E102.06237
G1 X127.937 Y109.127
G0 F4320 X127.876 Y109.561
G1 F1800 X125.837 Y107.523 E102.33481
G1 X125.776 Y107.462
G0 F4320 X125.342 Y107.523
G1 F1800 X127.876 Y110.056 E102.67339
G1 X127.937 Y110.117
G0 F4320 X127.876 Y110.551
G1 F1800 X124.847 Y107.523 E103.07813
G1 X124.786 Y107.462
G0 F4320 X124.352 Y107.523
G1 F1800 X127.826 Y110.997 E103.54241
G1 X127.887 Y111.058
G0 F4320 X127.826 Y111.492
G1 F1800 X123.857 Y107.523 E104.07283
G1 X123.796 Y107.462
G0 F4320 X123.362 Y107.523
G1 F1800 X127.826 Y111.987 E104.66942
G1 X127.887 Y112.048
G0 F4320 X127.826 Y112.482
G1 F1800 X122.867 Y107.523 E105.33215
G1 X122.806 Y107.462
G0 F4320 X122.372 Y107.523
G1 F1800 X127.826 Y112.977 E106.06104
G1 X127.887 Y113.038
G0 F4320 X127.826 Y113.472
G1 F1800 X121.877 Y107.523 E106.85609
G1 X121.816 Y107.462
G0 F4320 X121.382 Y107.523
G1 F1800 X127.826 Y113.967 E107.71728
G1 X127.887 Y114.028
G0 F4320 X127.826 Y114.462
G1 F1800 X120.887 Y107.523 E108.64463
G1 X120.826 Y107.462
G0 F4320 X120.392 Y107.523
G1 F1800 X127.826 Y114.957 E109.63814
G1 X127.887 Y115.018
G0 F4320 X127.826 Y115.452
G1 F1800 X119.897 Y107.523 E110.69779
G1 X119.836 Y107.462
G0 F4320 X119.402 Y107.523
G1 F1800 X127.826 Y115.947 E111.8236
G1 X127.887 Y116.008
G0 F4320 X127.826 Y116.442
G1 F1800 X118.907 Y107.523 E113.01557
G1 X118.846 Y107.462
G0 F4320 X118.412 Y107.523
G1 F1800 X127.826 Y116.937 E114.27369
G1 X127.887 Y116.998
G0 F4320 X127.826 Y117.432
G1 F1800 X117.917 Y107.523 E115.59796
G1 X117.856 Y107.462
G0 F4320 X117.422 Y107.523
G1 F1800 X120.676 Y110.776 E116.03276
G1 X120.737 Y110.837
G0 F4320 X120.181 Y110.776
G1 F1800 X116.927 Y107.523 E116.46757
G1 X116.866 Y107.462
G0 F4320 X116.432 Y107.523
G1 F1800 X119.686 Y110.776 E116.90238
G1 X119.747 Y110.837
G0 F4320 X119.191 Y110.776
G1 F1800 X115.937 Y107.523 E117.33719
G1 X115.876 Y107.462
G0 F4320 X115.442 Y107.523
G1 F1800 X118.696 Y110.776 E117.772
G1 X118.757 Y110.837
G0 F4320 X118.201 Y110.776
G1 F1800 X114.948 Y107.524 E118.20667
G1 X114.887 Y107.463
G0 F4320 X114.453 Y107.524
G1 F1800 X117.706 Y110.776 E118.64134
G1 X117.767 Y110.837
G0 F4320 X117.211 Y110.776
G1 F1800 X113.958 Y107.524 E119.07602
G1 X113.897 Y107.463
G0 F4320 X113.463 Y107.524
G1 F1800 X116.716 Y110.776 E119.51069
G1 X116.777 Y110.837
G0 F4320 X116.221 Y110.776
G1 F1800 X112.968 Y107.524 E119.94537
G1 X112.907 Y107.463
G0 F4320 X112.473 Y107.524
G1 F1800 X115.726 Y110.776 E120.38004
G1 X115.787 Y110.837
G0 F4320 X115.231 Y110.776
G1 F1800 X111.978 Y107.524 E120.81472
G1 X111.917 Y107.463
G0 F4320 X111.483 Y107.524
G1 F1800 X114.736 Y110.776 E121.24939
G1 X114.797 Y110.837
G0 F4320 X114.241 Y110.776
G1 F1800 X110.988 Y107.524 E121.68407
G1 X110.927 Y107.463
G0 F4320 X110.493 Y107.524
G1 F1800 X113.746 Y110.776 E122.11874
G1 X113.807 Y110.837
G0 F4320 X113.251 Y110.776
G1 F1800 X109.998 Y107.524 E122.55342
G1 X109.937 Y107.463
G0 F4320 X109.503 Y107.524
G1 F1800 X112.756 Y110.776 E122.98809
G1 X112.817 Y110.837
G0 F4320 X112.261 Y110.776
G1 F1800 X109.008 Y107.524 E123.42276
G1 X108.947 Y107.463
G0 F4320 X108.514 Y107.524
G1 F1800 X111.766 Y110.776 E123.85737
G1 X111.827 Y110.837
G0 F4320 X111.271 Y110.776
G1 F1800 X108.019 Y107.524 E124.29198
G1 X107.958 Y107.463
G0 F4320 X107.524 Y107.524
G1 F1800 X110.776 Y110.776 E124.72659
G1 X110.837 Y110.837
G0 F4320 X110.281 Y110.776
G1 F1800 X107.029 Y107.524 E125.16119
G1 X106.968 Y107.463
G0 F4320 X106.534 Y107.524
G1 F1800 X109.786 Y110.776 E125.5958
G1 X109.847 Y110.837
G0 F4320 X109.291 Y110.776
G1 F1800 X106.039 Y107.524 E126.03041
G1 X105.978 Y107.463
G0 F4320 X105.544 Y107.524
G1 F1800 X108.796 Y110.776 E126.46502
G1 X108.857 Y110.837
G0 F4320 X108.301 Y110.776
G1 F1800 X105.049 Y107.524 E126.89962
G1 X104.988 Y107.463
G0 F4320 X104.554 Y107.524
G1 F1800 X107.806 Y110.776 E127.33423
G1 X107.867 Y110.837
G0 F4320 X107.311 Y110.776
G1 F1800 X104.059 Y107.524 E127.76884
G1 X103.998 Y107.463
G0 F4320 X103.564 Y107.524
G1 F1800 X106.816 Y110.776 E128.20345
G1 X106.877 Y110.837
G0 F4320 X106.321 Y110.776
G1 F1800 X103.069 Y107.524 E128.63806
G1 X103.008 Y107.463
G0 F4320 X102.574 Y107.524
G1 F1800 X105.827 Y110.776 E129.07273
G1 X105.888 Y110.837
G0 F4320 X105.332 Y110.776
G1 F1800 X102.198 Y107.643 E129.4915
G1 X102.137 Y107.582
G0 F4320 X101.882 Y107.822
G1 F1800 X104.837 Y110.776 E129.88635
G1 X104.898 Y110.837
G0 F4320 X104.342 Y110.776
G1 F1800 X101.531 Y107.966 E130.26195
G1 X101.47 Y107.905
G0 F4320 X101.102 Y108.032
G1 F1800 X103.847 Y110.776 E130.62874
G1 X103.908 Y110.837
G0 F4320 X103.352 Y110.776
G1 F1800 X100.536 Y107.961 E131.00501
G1 X100.475 Y107.9
G0 F4320 X99.604 Y107.524
G1 F1800 X102.857 Y110.776 E131.43968
G1 X102.918 Y110.837
G0 F4320 X102.362 Y110.776
G1 F1800 X99.109 Y107.524 E131.87436
G1 X99.048 Y107.463
G0 F4320 X98.614 Y107.524
G1 F1800 X101.867 Y110.776 E132.30903
G1 X101.928 Y110.837
G0 F4320 X101.372 Y110.776
G1 F1800 X98.119 Y107.524 E132.74371
G1 X98.058 Y107.463
G0 F4320 X97.624 Y107.524
G1 F1800 X100.877 Y110.776 E133.17838
G1 X100.938 Y110.837
G0 F4320 X100.382 Y110.776
G1 F1800 X97.129 Y107.524 E133.61306
G1 X97.068 Y107.463
G0 F4320 X96.634 Y107.524
G1 F1800 X99.887 Y110.776 E134.04773
G1 X99.948 Y110.837
G0 F4320 X99.392 Y110.776
G1 F1800 X96.139 Y107.524 E134.48241
G1 X96.078 Y107.463
G0 F4320 X95.644 Y107.524
G1 F1800 X98.897 Y110.776 E134.91708
G1 X98.958 Y110.837
G0 F4320 X98.402 Y110.776
G1 F1800 X95.149 Y107.524 E135.35175
G1 X95.088 Y107.463
G0 F4320 X95.122 Y107.992
G1 F1800 X97.907 Y110.776 E135.72388
G1 X97.968 Y110.837
G0 F4320 X97.412 Y110.776
G1 F1800 X95.122 Y108.487 E136.02986
G1 X95.061 Y108.426
G0 F4320 X95.122 Y108.982
G1 F1800 X96.917 Y110.776 E136.26968
G1 X96.978 Y110.837
G0 F4320 X96.422 Y110.776
G1 F1800 X95.122 Y109.477 E136.44335
G1 X95.061 Y109.416
G0 F4320 X95.122 Y109.972
G1 F1800 X95.927 Y110.776 E136.55087
G1 X95.988 Y110.837
G0 F4320 X95.432 Y110.776
G1 F1800 X95.122 Y110.467 E136.59223
G0 F4320 X121.072 Y111.172
G1 F1800 X127.826 Y117.927 E137.49492
G1 X127.887 Y117.988
G0 F4320 X127.826 Y118.422
G1 F1800 X121.072 Y111.667 E138.39762
G1 X121.011 Y111.606
G0 F4320 X121.072 Y112.162
G1 F1800 X127.826 Y118.916 E139.30024
G1 X127.887 Y118.977
G0 F4320 X127.348 Y118.933
G1 F1800 X121.072 Y112.657 E140.13899
G1 X121.011 Y112.596
G0 F4320 X121.072 Y113.152
G1 F1800 X126.178 Y118.259 E140.82144
G1 X126.239 Y118.32
G0 F4320 X125.009 Y117.584
