;FLAVOR:UltiGCode
;TIME:4458
;MATERIAL:2586
;MATERIAL2:0
;NOZZLE_DIAMETER:0.4
;Generated with Cura_SteamEngine 3.3.1
M82 ;absolute extrusion mode

G92 E0
G10
;LAYER_COUNT:264
;LAYER:0
M107
G0 F4320 X91.293 Y93.505 Z0.27
;TYPE:SKIRT
G11
G1 F1800 X91.694 Y93.157 E0.05017
G1 X92.142 Y92.874 E0.10025
G1 X92.628 Y92.66 E0.15043
G1 X93.14 Y92.523 E0.20052
G1 X93.797 Y92.461 E0.26288
G1 X109.703 Y92.461 E1.766
G1 X110.232 Y92.501 E1.81613
G1 X110.749 Y92.62 E1.86626
G1 X111.243 Y92.815 E1.91645
G1 X111.604 Y93.018 E1.95559
G1 X114.774 Y95.049 E2.31137
G1 X119.517 Y97.785 E2.82881
G1 X124.392 Y100.242 E3.3447
G1 X130.629 Y102.917 E3.98602
G1 X131.1 Y103.163 E4.03623
G1 X131.528 Y103.476 E4.08634
G1 X131.905 Y103.85 E4.13652
G1 X132.221 Y104.276 E4.18665
G1 X132.47 Y104.744 E4.23674
G1 X132.645 Y105.245 E4.28689
G1 X132.743 Y105.767 E4.33708
G1 X132.765 Y106.166 E4.37485
G1 X132.715 Y126.85 E6.32949
G1 X132.674 Y127.379 E6.37963
G1 X132.554 Y127.895 E6.42969
G1 X132.357 Y128.388 E6.47986
G1 X132.089 Y128.846 E6.53001
G1 X131.755 Y129.259 E6.5802
G1 X131.363 Y129.616 E6.63031
G1 X130.922 Y129.911 E6.68045
G1 X130.441 Y130.136 E6.73063
G1 X129.932 Y130.287 E6.7808
G1 X129.19 Y130.366 E6.85132
G1 X119.705 Y130.365 E7.74765
G1 X119.175 Y130.325 E7.79788
G1 X118.658 Y130.206 E7.84801
G1 X118.165 Y130.011 E7.89811
G1 X117.61 Y129.675 E7.95942
G1 X113.143 Y126.373 E8.48436
G1 X108.589 Y123.389 E8.99887
G1 X103.866 Y120.664 E9.51416
G1 X98.978 Y118.199 E10.03148
G1 X93.97 Y116.018 E10.54767
G1 X93.962 Y116.016 E10.54845
G1 X92.451 Y115.412 E10.70223
G1 X91.974 Y115.179 E10.75239
G1 X91.538 Y114.876 E10.80257
G1 X91.152 Y114.512 E10.85271
G1 X90.826 Y114.094 E10.9028
G1 X90.565 Y113.631 E10.95303
G1 X90.378 Y113.135 E11.00312
G1 X90.266 Y112.616 E11.05329
G1 X90.235 Y112.221 E11.09074
G1 X90.096 Y106.263 E11.65392
G1 X90.095 Y106.193 E11.66054
G1 X90.06 Y96.212 E12.60375
G1 X90.098 Y95.683 E12.65387
G1 X90.215 Y95.165 E12.70405
G1 X90.409 Y94.671 E12.7542
G1 X90.674 Y94.212 E12.80429
G1 X91.081 Y93.719 E12.8647
G1 X91.293 Y93.505 E12.89317
G0 F4320 X91.541 Y93.752
G1 F1800 X91.923 Y93.423 E12.94081
G1 X92.352 Y93.159 E12.98841
G1 X92.817 Y92.966 E13.03599
G1 X93.307 Y92.849 E13.0836
G1 X93.797 Y92.811 E13.13004
G1 X109.703 Y92.811 E14.63316
G1 X110.205 Y92.851 E14.68075
G1 X110.694 Y92.97 E14.72831
G1 X111.159 Y93.164 E14.77592
G1 X111.415 Y93.312 E14.80386
G1 X114.6 Y95.352 E15.16129
G1 X119.362 Y98.1 E15.68085
G1 X124.239 Y100.558 E16.19696
G1 X130.491 Y103.239 E16.8398
G1 X130.937 Y103.473 E16.8874
G1 X131.34 Y103.776 E16.93504
G1 X131.69 Y104.138 E16.98263
G1 X131.978 Y104.55 E17.03013
G1 X132.198 Y105.003 E17.07772
G1 X132.343 Y105.486 E17.12538
G1 X132.415 Y106.165 E17.1899
G1 X132.365 Y126.849 E19.14454
G1 X132.324 Y127.351 E19.19214
G1 X132.204 Y127.84 E19.23972
G1 X132.008 Y128.304 E19.28732
G1 X131.741 Y128.731 E19.33491
G1 X131.41 Y129.11 E19.38247
G1 X131.024 Y129.433 E19.43003
G1 X130.591 Y129.69 E19.47761
G1 X130.123 Y129.876 E19.5252
G1 X129.631 Y129.985 E19.57282
G1 X129.19 Y130.016 E19.6146
G1 X119.705 Y130.015 E20.51093
G1 X119.203 Y129.975 E20.55852
G1 X118.713 Y129.856 E20.60617
G1 X118.249 Y129.661 E20.65374
G1 X117.818 Y129.393 E20.7017
G1 X113.356 Y126.095 E21.22603
G1 X108.766 Y123.087 E21.74463
G1 X104.021 Y120.349 E22.26233
G1 X99.14 Y117.888 E22.7789
G1 X94.097 Y115.693 E23.29865
G1 X94.092 Y115.691 E23.29916
G1 X92.581 Y115.087 E23.45293
G1 X92.129 Y114.864 E23.50056
G1 X91.719 Y114.572 E23.54813
G1 X91.36 Y114.219 E23.59571
G1 X91.061 Y113.813 E23.64336
G1 X90.83 Y113.366 E23.6909
G1 X90.673 Y112.887 E23.73854
G1 X90.585 Y112.213 E23.80277
G1 X90.446 Y106.255 E24.36596
G1 X90.445 Y106.192 E24.37191
G1 X90.41 Y96.211 E25.31512
G1 X90.448 Y95.709 E25.3627
G1 X90.565 Y95.219 E25.4103
G1 X90.758 Y94.754 E25.45788
G1 X91.023 Y94.325 E25.50553
G1 X91.329 Y93.966 E25.55011
G1 X91.541 Y93.752 E25.57858
G0 F4320 X93.868 Y96.15
;TYPE:SUPPORT
G1 F1800 X109.632 Y96.15 E27.06827
G1 X109.75 Y96.268 E27.08404
G1 X109.75 Y105.3 E27.93757
G1 X103.302 Y105.302 E28.5469
G1 X103.302 Y105.247 E28.5521
G1 X102.952 Y104.897 E28.59888
G1 X99.148 Y104.897 E28.95835
G1 X98.798 Y105.247 E29.00513
G1 X98.798 Y105.302 E29.01033
G1 X93.75 Y105.302 E29.48736
G1 X93.75 Y96.268 E30.34108
G1 X93.868 Y96.15 E30.35685
G0 F4320 X95.653 Y96.29
G1 F1800 X95.653 Y105.162 E31.19525
G0 F4320 X93.89 Y104.985
G1 F1800 X98.862 Y104.985 E31.6651
G0 F4320 X97.986 Y105.162
G1 F1800 X97.986 Y96.29 E32.50351
G0 F4320 X100.319 Y96.29
G1 F1800 X100.319 Y104.757 E33.30364
G0 F4320 X102.652 Y104.757
G1 F1800 X102.652 Y96.29 E34.10377
G0 F4320 X104.985 Y96.29
G1 F1800 X104.985 Y105.162 E34.94217
G0 F4320 X103.237 Y104.985
G1 F1800 X109.61 Y104.985 E35.54442
G0 F4320 X107.318 Y105.161
G1 F1800 X107.318 Y96.29 E36.38273
G0 F4320 X109.61 Y97.986
G1 F1800 X93.89 Y97.986 E37.86827
G0 F4320 X93.89 Y100.319
G1 F1800 X109.61 Y100.319 E39.35381
G0 F4320 X109.61 Y102.652
G1 F1800 X93.89 Y102.652 E40.83935
G10
G0 F4320 X100.627 Y105.483
G0 X101.059 Y105.798
G0 X101.938 Y106.694
G0 X128.325 Y111.275
;TYPE:WALL-INNER
G11
G1 F1800 X128.325 Y119.752 E41.64043
G1 X128.325 Y119.91 E41.65536
G1 X128.325 Y124.19 E42.05982
G1 X128.325 Y124.348 E42.07475
G1 X128.325 Y125.975 E42.2285
G1 X125.718 Y125.975 E42.47486
G1 X125.717 Y125.975 E42.47496
G1 X125.065 Y125.975 E42.53657
G1 X125.63 Y125.649 E42.56846
G1 X128.022 Y124.268 E42.82947
G1 X128.158 Y124.19 E42.84091
G1 X128.158 Y119.91 E43.03389
G1 X128.022 Y119.832 E43.04533
G1 X124.45 Y117.77 E43.43509
G1 X120.878 Y119.832 E43.82485
G1 X120.742 Y119.91 E43.83967
G1 X120.742 Y124.19 E44.24413
G1 X120.878 Y124.268 E44.25894
G1 X123.27 Y125.649 E44.51996
G1 X123.835 Y125.975 E44.5816
G1 X123.183 Y125.975 E44.61347
G1 X123.182 Y125.975 E44.61356
G1 X120.575 Y125.975 E44.85993
G1 X120.575 Y124.348 E45.01368
G1 X120.575 Y124.19 E45.02525
G1 X120.575 Y119.91 E45.21823
G1 X120.575 Y119.752 E45.2298
G1 X120.575 Y111.275 E46.03088
G1 X94.625 Y111.275 E48.48316
G1 X94.625 Y107.027 E48.88459
G1 X99.987 Y107.027 E49.3913
G1 X100.235 Y107.274 E49.42438
G1 X100.623 Y107.471 E49.4655
G1 X101.05 Y107.537 E49.50633
G1 X101.477 Y107.471 E49.54716
G1 X101.865 Y107.274 E49.58828
G1 X102.112 Y107.027 E49.62129
G1 X128.2 Y107.025 E52.08661
G1 X128.375 Y107.025 E52.10315
G1 X128.375 Y107.2 E52.11385
G1 X128.375 Y111.275 E52.49894
G1 X128.325 Y111.275 E52.50366
G0 F4320 X128.675 Y111.625
G1 F1800 X128.675 Y126.325 E53.89281
G1 X120.225 Y126.325 E54.69134
G1 X120.225 Y111.625 E56.08049
G1 X94.275 Y111.625 E58.53276
G1 X94.275 Y106.677 E59.00035
G1 X100.172 Y106.677 E59.55761
G1 X100.21 Y106.755 E59.56581
G1 X100.443 Y106.987 E59.59688
G1 X100.732 Y107.134 E59.62752
G1 X101.05 Y107.183 E59.65793
G1 X101.368 Y107.134 E59.68834
G1 X101.657 Y106.987 E59.71898
G1 X101.887 Y106.757 E59.74971
G1 X101.928 Y106.677 E59.75821
G1 X128.55 Y106.675 E62.27399
G1 X128.725 Y106.675 E62.29053
G1 X128.725 Y106.85 E62.30123
G1 X128.725 Y111.625 E62.75247
G1 X128.675 Y111.625 E62.75719
G0 F4320 X128.605 Y111.555
G0 X121.006 Y120.062
G0 X121.092 Y120.112
G1 F1800 X121.092 Y123.988 E63.12347
G1 X124.45 Y125.926 E63.48986
G1 X127.808 Y123.988 E63.85625
G1 X127.808 Y120.112 E64.22253
G1 X124.45 Y118.174 E64.58892
G1 X121.092 Y120.112 E64.9553
G0 F4320 X121.417 Y120.3
;TYPE:WALL-OUTER
G1 F1800 X121.417 Y123.8 E65.28605
G1 X124.45 Y125.551 E65.61701
G1 X127.483 Y123.8 E65.94796
G1 X127.483 Y120.3 E66.27871
G1 X124.45 Y118.549 E66.60966
G1 X121.417 Y120.3 E66.94062
G0 F4320 X121.417 Y120.5
G0 X120.992 Y120.5
G0 X121.051 Y120.133
G0 X128.575 Y111.95
G0 X129 Y111.95
G1 F1800 X129 Y126.65 E68.32977
G1 X119.9 Y126.65 E69.18972
G1 X119.9 Y111.95 E70.57887
G1 X93.95 Y111.95 E73.03114
G1 X93.95 Y106.352 E73.56015
G1 X100.377 Y106.352 E74.16751
G1 X100.479 Y106.564 E74.18974
G1 X100.636 Y106.721 E74.21072
G1 X100.833 Y106.821 E74.2316
G1 X101.05 Y106.854 E74.25234
G1 X101.267 Y106.821 E74.27308
G1 X101.464 Y106.721 E74.29396
G1 X101.621 Y106.564 E74.31494
G1 X101.721 Y106.367 E74.33582
G1 X101.723 Y106.352 E74.33725
G1 X128.875 Y106.35 E76.90311
G1 X129.05 Y106.35 E76.91965
G1 X129.05 Y106.525 E76.93035
G1 X129.05 Y111.95 E77.44302
G1 X129 Y111.95 E77.44774
G0 F4320 X129 Y112.15
G0 X128.575 Y112.15
G0 X128.035 Y110.935
;TYPE:SKIN
G1 F1800 X127.985 Y110.935 E77.45247
G1 X127.985 Y119.417 E78.25401
G1 X124.45 Y117.378 E78.63966
G1 X120.915 Y119.417 E79.0253
G1 X120.915 Y110.935 E79.82685
G1 X94.965 Y110.935 E82.27913
G1 X94.965 Y107.367 E82.6163
G1 X99.846 Y107.367 E83.07756
G1 X100.033 Y107.553 E83.10248
G1 X100.518 Y107.799 E83.15387
G1 X101.05 Y107.881 E83.20474
G1 X101.582 Y107.799 E83.25561
G1 X102.067 Y107.552 E83.30704
G1 X102.253 Y107.367 E83.33183
G1 X128.035 Y107.365 E85.76823
G1 X128.035 Y110.935 E86.1056
G0 F4320 X127.876 Y107.582
G0 X127.846 Y107.552
G1 F1800 X127.599 Y107.8 E86.14642
G1 X127.937 Y108.138
G0 F4320 X127.876 Y108.572
G1 F1800 X126.827 Y107.523 E86.28662
G1 X126.766 Y107.462
G0 F4320 X126.332 Y107.523
G1 F1800 X127.876 Y109.066 E86.49289
G1 X127.937 Y109.127
G0 F4320 X127.876 Y109.561
G1 F1800 X125.837 Y107.523 E86.76533
G1 X125.776 Y107.462
G0 F4320 X125.342 Y107.523
G1 F1800 X127.876 Y110.056 E87.10391
G1 X127.937 Y110.117
G0 F4320 X127.876 Y110.551
G1 F1800 X124.847 Y107.523 E87.50865
G1 X124.786 Y107.462
G0 F4320 X124.352 Y107.523
G1 F1800 X127.826 Y110.997 E87.97293
G1 X127.887 Y111.058
G0 F4320 X127.826 Y111.492
G1 F1800 X123.857 Y107.523 E88.50336
G1 X123.796 Y107.462
G0 F4320 X123.362 Y107.523
G1 F1800 X127.826 Y111.987 E89.09994
G1 X127.887 Y112.048
G0 F4320 X127.826 Y112.482
G1 F1800 X122.867 Y107.523 E89.76268
G1 X122.806 Y107.462
G0 F4320 X122.372 Y107.523
G1 F1800 X127.826 Y112.977 E90.49157
G1 X127.887 Y113.038
G0 F4320 X127.826 Y113.472
G1 F1800 X121.877 Y107.523 E91.28661
G1 X121.816 Y107.462
G0 F4320 X121.382 Y107.523
G1 F1800 X127.826 Y113.967 E92.14781
G1 X127.887 Y114.028
G0 F4320 X127.826 Y114.462
G1 F1800 X120.887 Y107.523 E93.07516
G1 X120.826 Y107.462
G0 F4320 X120.392 Y107.523
G1 F1800 X127.826 Y114.957 E94.06866
G1 X127.887 Y115.018
G0 F4320 X127.826 Y115.452
G1 F1800 X119.897 Y107.523 E95.12832
G1 X119.836 Y107.462
G0 F4320 X119.402 Y107.523
G1 F1800 X127.826 Y115.947 E96.25413
G1 X127.887 Y116.008
G0 F4320 X127.826 Y116.442
G1 F1800 X118.907 Y107.523 E97.44609
G1 X118.846 Y107.462
G0 F4320 X118.412 Y107.523
G1 F1800 X127.826 Y116.937 E98.70421
G1 X127.887 Y116.998
G0 F4320 X127.826 Y117.432
G1 F1800 X117.917 Y107.523 E100.02848
G1 X117.856 Y107.462
G0 F4320 X117.422 Y107.523
G1 F1800 X120.676 Y110.776 E100.46328
G1 X120.737 Y110.837
G0 F4320 X120.181 Y110.776
G1 F1800 X116.927 Y107.523 E100.89809
G1 X116.866 Y107.462
G0 F4320 X116.432 Y107.523
G1 F1800 X119.686 Y110.776 E101.3329
G1 X119.747 Y110.837
G0 F4320 X119.191 Y110.776
G1 F1800 X115.937 Y107.523 E101.76771
G1 X115.876 Y107.462
G0 F4320 X115.442 Y107.523
G1 F1800 X118.696 Y110.776 E102.20252
G1 X118.757 Y110.837
G0 F4320 X118.201 Y110.776
G1 F1800 X114.948 Y107.524 E102.63719
G1 X114.887 Y107.463
G0 F4320 X114.453 Y107.524
G1 F1800 X117.706 Y110.776 E103.07187
G1 X117.767 Y110.837
G0 F4320 X117.211 Y110.776
G1 F1800 X113.958 Y107.524 E103.50654
G1 X113.897 Y107.463
G0 F4320 X113.463 Y107.524
G1 F1800 X116.716 Y110.776 E103.94121
G1 X116.777 Y110.837
G0 F4320 X116.221 Y110.776
G1 F1800 X112.968 Y107.524 E104.37589
G1 X112.907 Y107.463
G0 F4320 X112.473 Y107.524
G1 F1800 X115.726 Y110.776 E104.81056
G1 X115.787 Y110.837
G0 F4320 X115.231 Y110.776
G1 F1800 X111.978 Y107.524 E105.24524
G1 X111.917 Y107.463
G0 F4320 X111.483 Y107.524
G1 F1800 X114.736 Y110.776 E105.67991
G1 X114.797 Y110.837
G0 F4320 X114.241 Y110.776
G1 F1800 X110.988 Y107.524 E106.11459
G1 X110.927 Y107.463
G0 F4320 X110.493 Y107.524
G1 F1800 X113.746 Y110.776 E106.54926
G1 X113.807 Y110.837
G0 F4320 X113.251 Y110.776
G1 F1800 X109.998 Y107.524 E106.98394
G1 X109.937 Y107.463
G0 F4320 X109.503 Y107.524
G1 F1800 X112.756 Y110.776 E107.41861
G1 X112.817 Y110.837
G0 F4320 X112.261 Y110.776
G1 F1800 X109.008 Y107.524 E107.85329
G1 X108.947 Y107.463
G0 F4320 X108.514 Y107.524
G1 F1800 X111.766 Y110.776 E108.28789
G1 X111.827 Y110.837
G0 F4320 X111.271 Y110.776
G1 F1800 X108.019 Y107.524 E108.7225
G1 X107.958 Y107.463
G0 F4320 X107.524 Y107.524
G1 F1800 X110.776 Y110.776 E109.15711
G1 X110.837 Y110.837
G0 F4320 X110.281 Y110.776
G1 F1800 X107.029 Y107.524 E109.59172
G1 X106.968 Y107.463
G0 F4320 X106.534 Y107.524
G1 F1800 X109.786 Y110.776 E110.02632
G1 X109.847 Y110.837
G0 F4320 X109.291 Y110.776
G1 F1800 X106.039 Y107.524 E110.46093
G1 X105.978 Y107.463
G0 F4320 X105.544 Y107.524
G1 F1800 X108.796 Y110.776 E110.89554
G1 X108.857 Y110.837
G0 F4320 X108.301 Y110.776
G1 F1800 X105.049 Y107.524 E111.33015
G1 X104.988 Y107.463
G0 F4320 X104.554 Y107.524
G1 F1800 X107.806 Y110.776 E111.76475
G1 X107.867 Y110.837
G0 F4320 X107.311 Y110.776
G1 F1800 X104.059 Y107.524 E112.19936
G1 X103.998 Y107.463
G0 F4320 X103.564 Y107.524
G1 F1800 X106.816 Y110.776 E112.63397
G1 X106.877 Y110.837
G0 F4320 X106.321 Y110.776
G1 F1800 X103.069 Y107.524 E113.06858
G1 X103.008 Y107.463
G0 F4320 X102.574 Y107.524
G1 F1800 X105.827 Y110.776 E113.50325
G1 X105.888 Y110.837
G0 F4320 X105.332 Y110.776
G1 F1800 X102.198 Y107.643 E113.92202
G1 X102.137 Y107.582
G0 F4320 X101.882 Y107.822
G1 F1800 X104.837 Y110.776 E114.31687
G1 X104.898 Y110.837
G0 F4320 X104.342 Y110.776
G1 F1800 X101.531 Y107.966 E114.69247
G1 X101.47 Y107.905
G0 F4320 X101.102 Y108.032
G1 F1800 X103.847 Y110.776 E115.05926
G1 X103.908 Y110.837
G0 F4320 X103.352 Y110.776
G1 F1800 X100.536 Y107.961 E115.43553
G1 X100.475 Y107.9
G0 F4320 X99.604 Y107.524
G1 F1800 X102.857 Y110.776 E115.87021
G1 X102.918 Y110.837
G0 F4320 X102.362 Y110.776
G1 F1800 X99.109 Y107.524 E116.30488
G1 X99.048 Y107.463
G0 F4320 X98.614 Y107.524
G1 F1800 X101.867 Y110.776 E116.73955
G1 X101.928 Y110.837
G0 F4320 X101.372 Y110.776
G1 F1800 X98.119 Y107.524 E117.17423
G1 X98.058 Y107.463
G0 F4320 X97.624 Y107.524
G1 F1800 X100.877 Y110.776 E117.6089
G1 X100.938 Y110.837
G0 F4320 X100.382 Y110.776
G1 F1800 X97.129 Y107.524 E118.04358
G1 X97.068 Y107.463
G0 F4320 X96.634 Y107.524
G1 F1800 X99.887 Y110.776 E118.47825
G1 X99.948 Y110.837
G0 F4320 X99.392 Y110.776
G1 F1800 X96.139 Y107.524 E118.91293
G1 X96.078 Y107.463
G0 F4320 X95.644 Y107.524
G1 F1800 X98.897 Y110.776 E119.3476
G1 X98.958 Y110.837
G0 F4320 X98.402 Y110.776
G1 F1800 X95.149 Y107.524 E119.78228
G1 X95.088 Y107.463
G0 F4320 X95.122 Y107.992
G1 F1800 X97.907 Y110.776 E120.1544
G1 X97.968 Y110.837
G0 F4320 X97.412 Y110.776
G1 F1800 X95.122 Y108.487 E120.46038
G1 X95.061 Y108.426
G0 F4320 X95.122 Y108.982
G1 F1800 X96.917 Y110.776 E120.7002
G1 X96.978 Y110.837
G0 F4320 X96.422 Y110.776
G1 F1800 X95.122 Y109.477 E120.87387
G1 X95.061 Y109.416
G0 F4320 X95.122 Y109.972
G1 F1800 X95.927 Y110.776 E120.98139
G1 X95.988 Y110.837
G0 F4320 X95.432 Y110.776
G1 F1800 X95.122 Y110.467 E121.02275
G0 F4320 X121.072 Y111.172
G1 F1800 X127.826 Y117.927 E121.92544
G1 X127.887 Y117.988
G0 F4320 X127.826 Y118.422
G1 F1800 X121.072 Y111.667 E122.82814
G1 X121.011 Y111.606
G0 F4320 X121.072 Y112.162
G1 F1800 X127.826 Y118.916 E123.73076
G1 X127.887 Y118.977
G0 F4320 X127.191 Y118.776
G1 F1800 X121.072 Y112.657 E124.54853
G1 X121.011 Y112.596
G0 F4320 X121.072 Y113.152
G1 F1800 X126.022 Y118.103 E125.21013
G1 X126.083 Y118.164
G0 F4320 X124.853 Y117.428
G1 F1800 X121.072 Y113.647 E125.71543
G1 X121.011 Y113.586
G0 F4320 X121.072 Y114.142
G1 F1800 X124.243 Y117.313 E126.13921
G1 X124.304 Y117.374
G0 F4320 X123.929 Y117.494
G1 F1800 X121.072 Y114.637 E126.52103
G1 X121.011 Y114.576
G0 F4320 X121.072 Y115.132
G1 F1800 X123.615 Y117.676 E126.86095
G1 X123.676 Y117.737
G0 F4320 X123.301 Y117.857
G1 F1800 X121.072 Y115.627 E127.15891
G1 X121.011 Y115.566
G0 F4320 X121.072 Y116.122
G1 F1800 X122.987 Y118.038 E127.41491
G1 X123.048 Y118.099
G0 F4320 X122.673 Y118.219
G1 F1800 X121.072 Y116.617 E127.62893
G1 X121.011 Y116.556
G0 F4320 X121.072 Y117.112
G1 F1800 X122.359 Y118.4 E127.801
G1 X122.42 Y118.461
G0 F4320 X122.045 Y118.581
