;FLAVOR:UltiGCode
;TIME:11727
;MATERIAL:11509
;MATERIAL2:0
;NOZZLE_DIAMETER:0.4
;Generated with Cura_SteamEngine 3.3.1
M82 ;absolute extrusion mode

G92 E0
G10
;LAYER_COUNT:256
;LAYER:0
M107
G0 F4320 X84.457 Y80.563 Z0.27
;TYPE:SKIRT
G11
G1 F1800 X84.56 Y80.46 E0.01377
G1 X85.148 Y79.927 E0.08876
G1 X85.787 Y79.457 E0.16372
G1 X86.471 Y79.054 E0.23875
G1 X87.191 Y78.721 E0.31371
G1 X87.941 Y78.463 E0.38866
G1 X88.714 Y78.281 E0.46371
G1 X89.5 Y78.178 E0.53862
G1 X90.128 Y78.153 E0.59801
G1 X106.153 Y78.153 E2.11238
G1 X106.153 Y70.128 E2.87074
G1 X106.193 Y69.336 E2.94568
G1 X106.312 Y68.551 E3.02071
G1 X106.51 Y67.783 E3.09566
G1 X106.785 Y67.038 E3.1707
G1 X107.132 Y66.325 E3.24564
G1 X107.55 Y65.65 E3.32066
G1 X108.033 Y65.021 E3.39561
G1 X108.46 Y64.56 E3.45499
G1 X108.563 Y64.457 E3.46875
G1 X109.151 Y63.924 E3.54375
G1 X109.79 Y63.454 E3.61871
G1 X110.474 Y63.051 E3.69373
G1 X111.194 Y62.718 E3.7687
G1 X111.944 Y62.46 E3.84365
G1 X112.717 Y62.278 E3.9187
G1 X113.503 Y62.175 E3.99361
G1 X114.131 Y62.15 E4.053
G1 X124.872 Y62.15 E5.06803
G1 X125.664 Y62.19 E5.14297
G1 X126.449 Y62.309 E5.218
G1 X127.217 Y62.507 E5.29294
G1 X127.962 Y62.782 E5.36799
G1 X128.675 Y63.129 E5.44292
G1 X129.35 Y63.547 E5.51795
G1 X129.979 Y64.03 E5.5929
G1 X130.44 Y64.457 E5.65228
G1 X130.543 Y64.56 E5.66604
G1 X131.076 Y65.148 E5.74104
G1 X131.546 Y65.787 E5.816
G1 X131.949 Y66.471 E5.89102
G1 X132.282 Y67.191 E5.96599
G1 X132.54 Y67.941 E6.04094
G1 X132.722 Y68.714 E6.11598
G1 X132.825 Y69.5 E6.1909
G1 X132.85 Y70.128 E6.25029
G1 X132.85 Y96.872 E8.7776
G1 X132.81 Y97.664 E8.85254
G1 X132.691 Y98.449 E8.92757
G1 X132.588 Y98.85 E8.96669
G1 X139.51 Y98.85 E9.62082
G1 X140.302 Y98.89 E9.69576
G1 X141.087 Y99.009 E9.77079
G1 X141.855 Y99.207 E9.84574
G1 X142.6 Y99.482 E9.92078
G1 X143.313 Y99.829 E9.99572
G1 X143.988 Y100.247 E10.07075
G1 X144.617 Y100.73 E10.14569
G1 X145.078 Y101.157 E10.20507
G1 X145.181 Y101.26 E10.21884
G1 X145.714 Y101.848 E10.29383
G1 X146.184 Y102.487 E10.36879
G1 X146.587 Y103.171 E10.44382
G1 X146.92 Y103.891 E10.51878
G1 X147.178 Y104.641 E10.59373
G1 X147.36 Y105.414 E10.66878
G1 X147.463 Y106.2 E10.74369
G1 X147.488 Y106.828 E10.80308
G1 X147.488 Y117.572 E11.81839
G1 X147.448 Y118.364 E11.89333
G1 X147.329 Y119.149 E11.96836
G1 X147.131 Y119.917 E12.04331
G1 X146.856 Y120.662 E12.11836
G1 X146.509 Y121.375 E12.19329
G1 X146.091 Y122.05 E12.26832
G1 X145.608 Y122.679 E12.34326
G1 X145.181 Y123.14 E12.40264
G1 X145.078 Y123.243 E12.41641
G1 X144.49 Y123.776 E12.49141
G1 X143.851 Y124.246 E12.56637
G1 X143.167 Y124.649 E12.64139
G1 X142.447 Y124.982 E12.71635
G1 X141.697 Y125.24 E12.7913
G1 X140.924 Y125.422 E12.86635
G1 X140.138 Y125.525 E12.94126
G1 X139.51 Y125.55 E13.00066
G1 X128.215 Y125.55 E14.06803
G1 X127.423 Y125.51 E14.14297
G1 X126.638 Y125.391 E14.218
G1 X126.613 Y125.384 E14.22046
G1 X126.254 Y125.842 E14.27545
G1 X125.957 Y126.15 E14.31588
G1 X129.412 Y126.15 E14.64238
G1 X130.204 Y126.19 E14.71732
G1 X130.989 Y126.309 E14.79235
G1 X131.757 Y126.507 E14.8673
G1 X132.502 Y126.782 E14.94234
G1 X133.215 Y127.129 E15.01728
G1 X133.89 Y127.547 E15.09231
G1 X134.519 Y128.03 E15.16725
G1 X134.98 Y128.457 E15.22663
G1 X135.083 Y128.56 E15.2404
G1 X135.616 Y129.148 E15.31539
G1 X136.086 Y129.787 E15.39035
G1 X136.489 Y130.471 E15.46538
G1 X136.822 Y131.191 E15.54034
G1 X137.08 Y131.941 E15.61529
G1 X137.262 Y132.714 E15.69034
G1 X137.365 Y133.5 E15.76525
G1 X137.39 Y134.128 E15.82464
G1 X137.39 Y156.872 E17.97395
G1 X137.35 Y157.664 E18.04889
G1 X137.231 Y158.449 E18.12392
G1 X137.033 Y159.217 E18.19887
G1 X136.758 Y159.962 E18.27392
G1 X136.411 Y160.675 E18.34885
G1 X135.993 Y161.35 E18.42388
G1 X135.51 Y161.979 E18.49882
G1 X135.083 Y162.44 E18.5582
G1 X134.98 Y162.543 E18.57197
G1 X134.392 Y163.076 E18.64696
G1 X133.753 Y163.546 E18.72193
G1 X133.069 Y163.949 E18.79695
G1 X132.349 Y164.282 E18.87191
G1 X131.599 Y164.54 E18.94686
G1 X130.826 Y164.722 E19.02191
G1 X130.04 Y164.825 E19.09682
G1 X129.412 Y164.85 E19.15622
G1 X118.67 Y164.85 E20.17133
G1 X117.878 Y164.81 E20.24627
G1 X117.093 Y164.691 E20.3213
G1 X116.325 Y164.493 E20.39625
G1 X115.58 Y164.218 E20.4713
G1 X114.867 Y163.871 E20.54623
G1 X114.192 Y163.453 E20.62126
G1 X113.563 Y162.97 E20.6962
G1 X113.102 Y162.543 E20.75558
G1 X112.999 Y162.44 E20.76935
G1 X112.466 Y161.852 E20.84435
G1 X111.996 Y161.213 E20.91931
G1 X111.593 Y160.529 E20.99433
G1 X111.26 Y159.809 E21.0693
G1 X111.002 Y159.059 E21.14425
G1 X110.82 Y158.286 E21.21929
G1 X110.717 Y157.5 E21.2942
G1 X110.692 Y156.872 E21.3536
G1 X110.692 Y149.848 E22.01737
G1 X91.589 Y149.85 E23.8226
G1 X90.796 Y149.81 E23.89763
G1 X90.012 Y149.691 E23.97257
G1 X89.244 Y149.493 E24.04752
G1 X88.499 Y149.219 E24.12253
G1 X87.786 Y148.871 E24.19751
G1 X87.111 Y148.454 E24.27249
G1 X86.482 Y147.97 E24.34749
G1 X86.02 Y147.543 E24.40694
G1 X85.917 Y147.44 E24.4207
G1 X85.384 Y146.852 E24.4957
G1 X84.914 Y146.213 E24.57066
G1 X84.511 Y145.529 E24.64568
G1 X84.178 Y144.809 E24.72065
G1 X83.92 Y144.059 E24.7956
G1 X83.738 Y143.286 E24.87064
G1 X83.635 Y142.5 E24.94556
G1 X83.61 Y141.872 E25.00495
G1 X83.61 Y136.181 E25.54275
G1 X83.65 Y135.389 E25.61769
G1 X83.769 Y134.604 E25.69272
G1 X83.967 Y133.836 E25.76767
G1 X84.242 Y133.091 E25.84271
G1 X84.589 Y132.378 E25.91765
G1 X84.764 Y132.095 E25.94909
G1 X84.631 Y131.906 E25.97093
G1 X84.241 Y131.215 E26.04591
G1 X83.922 Y130.488 E26.12094
G1 X83.678 Y129.733 E26.19592
G1 X83.512 Y128.957 E26.27091
G1 X83.424 Y128.168 E26.34593
G1 X83.41 Y127.694 E26.39074
G1 X83.41 Y127.549 E26.40445
G1 X82.636 Y127.51 E26.47768
G1 X81.851 Y127.391 E26.55271
G1 X81.083 Y127.193 E26.62766
G1 X80.338 Y126.918 E26.70271
G1 X79.625 Y126.571 E26.77764
G1 X78.95 Y126.153 E26.85267
G1 X78.321 Y125.67 E26.92761
G1 X77.883 Y125.267 E26.98386
G1 X77.647 Y125.033 E27.01527
G1 X77.113 Y124.447 E27.09019
G1 X76.64 Y123.81 E27.16516
G1 X76.233 Y123.128 E27.24022
G1 X75.898 Y122.409 E27.31518
G1 X75.636 Y121.66 E27.39016
G1 X75.451 Y120.888 E27.46518
G1 X75.345 Y120.102 E27.54013
G1 X75.317 Y119.443 E27.60246
G1 X75.312 Y103.547 E29.10463
G1 X75.352 Y102.755 E29.17957
G1 X75.471 Y101.971 E29.25451
G1 X75.669 Y101.202 E29.32955
G1 X75.943 Y100.457 E29.40456
G1 X76.29 Y99.744 E29.4795
G1 X76.708 Y99.069 E29.55453
G1 X77.191 Y98.44 E29.62947
G1 X77.619 Y97.977 E29.68905
G1 X77.839 Y97.757 E29.71845
G1 X78.427 Y97.224 E29.79345
G1 X79.066 Y96.754 E29.86841
G1 X79.75 Y96.351 E29.94343
G1 X80.47 Y96.018 E30.0184
G1 X81.22 Y95.76 E30.09335
G1 X81.993 Y95.578 E30.1684
G1 X82.15 Y95.557 E30.18337
G1 X82.15 Y86.131 E31.07412
G1 X82.19 Y85.339 E31.14906
G1 X82.309 Y84.554 E31.22409
G1 X82.507 Y83.786 E31.29904
G1 X82.782 Y83.041 E31.37409
G1 X83.129 Y82.328 E31.44902
G1 X83.547 Y81.653 E31.52405
G1 X84.03 Y81.024 E31.59899
G1 X84.457 Y80.563 E31.65837
G0 F4320 X84.704 Y80.81
G1 F1800 X84.807 Y80.707 E31.67214
G1 X85.383 Y80.188 E31.74541
G1 X86.009 Y79.73 E31.81871
G1 X86.68 Y79.34 E31.89205
G1 X87.386 Y79.02 E31.9653
G1 X88.122 Y78.775 E32.0386
G1 X88.88 Y78.607 E32.11197
G1 X89.65 Y78.518 E32.18522
G1 X90.128 Y78.503 E32.23042
G1 X106.503 Y78.503 E33.77785
G1 X106.503 Y70.128 E34.56929
G1 X106.543 Y69.353 E34.64263
G1 X106.662 Y68.587 E34.71588
G1 X106.86 Y67.837 E34.78918
G1 X107.134 Y67.111 E34.86251
G1 X107.481 Y66.418 E34.93575
G1 X107.898 Y65.764 E35.00905
G1 X108.38 Y65.156 E35.08237
G1 X108.707 Y64.807 E35.12757
G1 X108.81 Y64.704 E35.14133
G1 X109.386 Y64.185 E35.2146
G1 X110.012 Y63.727 E35.2879
G1 X110.683 Y63.337 E35.36124
G1 X111.389 Y63.017 E35.43449
G1 X112.125 Y62.772 E35.5078
G1 X112.883 Y62.604 E35.58117
G1 X113.653 Y62.515 E35.65442
G1 X114.131 Y62.5 E35.69961
G1 X124.872 Y62.5 E36.71463
G1 X125.647 Y62.54 E36.78797
G1 X126.413 Y62.659 E36.86122
G1 X127.163 Y62.857 E36.93453
G1 X127.889 Y63.131 E37.00786
G1 X128.582 Y63.478 E37.0811
G1 X129.236 Y63.895 E37.15439
G1 X129.844 Y64.377 E37.22771
G1 X130.193 Y64.704 E37.27291
G1 X130.296 Y64.807 E37.28668
G1 X130.815 Y65.383 E37.35994
G1 X131.273 Y66.009 E37.43324
G1 X131.663 Y66.68 E37.50659
G1 X131.983 Y67.386 E37.57984
G1 X132.228 Y68.122 E37.65314
G1 X132.396 Y68.88 E37.72651
G1 X132.485 Y69.65 E37.79976
G1 X132.5 Y70.128 E37.84495
G1 X132.5 Y96.872 E40.37226
G1 X132.46 Y97.647 E40.44559
G1 X132.341 Y98.413 E40.51885
G1 X132.143 Y99.163 E40.59215
G1 X132.129 Y99.2 E40.59589
G1 X139.51 Y99.2 E41.2934
G1 X140.285 Y99.24 E41.36673
G1 X141.051 Y99.359 E41.43999
G1 X141.801 Y99.557 E41.51329
G1 X142.527 Y99.831 E41.58662
G1 X143.22 Y100.178 E41.65986
G1 X143.874 Y100.595 E41.73316
G1 X144.482 Y101.077 E41.80648
G1 X144.831 Y101.404 E41.85167
G1 X144.934 Y101.507 E41.86544
G1 X145.453 Y102.083 E41.93871
G1 X145.911 Y102.709 E42.01201
G1 X146.301 Y103.38 E42.08535
G1 X146.621 Y104.086 E42.1586
G1 X146.866 Y104.822 E42.2319
G1 X147.034 Y105.58 E42.30527
G1 X147.123 Y106.35 E42.37852
G1 X147.138 Y106.828 E42.42371
G1 X147.138 Y117.572 E43.43902
G1 X147.098 Y118.347 E43.51236
G1 X146.979 Y119.113 E43.58561
G1 X146.781 Y119.863 E43.65892
G1 X146.507 Y120.589 E43.73225
G1 X146.16 Y121.282 E43.80549
G1 X145.743 Y121.936 E43.87878
G1 X145.261 Y122.544 E43.9521
G1 X144.934 Y122.893 E43.9973
G1 X144.831 Y122.996 E44.01106
G1 X144.255 Y123.515 E44.08433
G1 X143.629 Y123.973 E44.15763
G1 X142.958 Y124.363 E44.23097
G1 X142.252 Y124.683 E44.30423
G1 X141.516 Y124.928 E44.37753
G1 X140.758 Y125.096 E44.4509
G1 X139.988 Y125.185 E44.52415
G1 X139.51 Y125.2 E44.56934
G1 X128.215 Y125.2 E45.63672
G1 X127.44 Y125.16 E45.71005
G1 X126.674 Y125.041 E45.78331
G1 X126.469 Y124.987 E45.80334
G1 X126.366 Y125.143 E45.82101
G1 X125.874 Y125.742 E45.89426
G1 X125.323 Y126.288 E45.96756
G1 X125.06 Y126.5 E45.99949
G1 X129.412 Y126.5 E46.41075
G1 X130.187 Y126.54 E46.48409
G1 X130.953 Y126.659 E46.55734
G1 X131.703 Y126.857 E46.63064
G1 X132.429 Y127.131 E46.70398
G1 X133.122 Y127.478 E46.77721
G1 X133.776 Y127.895 E46.85051
G1 X134.384 Y128.377 E46.92383
G1 X134.733 Y128.704 E46.96903
G1 X134.836 Y128.807 E46.98279
G1 X135.355 Y129.383 E47.05606
G1 X135.813 Y130.009 E47.12936
G1 X136.203 Y130.68 E47.2027
G1 X136.523 Y131.386 E47.27595
G1 X136.768 Y132.122 E47.34926
G1 X136.936 Y132.88 E47.42263
G1 X137.025 Y133.65 E47.49588
G1 X137.04 Y134.128 E47.54107
G1 X137.04 Y156.872 E49.69038
G1 X137 Y157.647 E49.76371
G1 X136.881 Y158.413 E49.83697
G1 X136.683 Y159.163 E49.91027
G1 X136.409 Y159.889 E49.9836
G1 X136.062 Y160.582 E50.05684
G1 X135.645 Y161.236 E50.13014
G1 X135.163 Y161.844 E50.20346
G1 X134.836 Y162.193 E50.24865
G1 X134.733 Y162.296 E50.26242
G1 X134.157 Y162.815 E50.33569
G1 X133.531 Y163.273 E50.40899
G1 X132.86 Y163.663 E50.48233
G1 X132.154 Y163.983 E50.55558
G1 X131.418 Y164.228 E50.62888
G1 X130.66 Y164.396 E50.70225
G1 X129.89 Y164.485 E50.7755
G1 X129.412 Y164.5 E50.8207
G1 X118.67 Y164.5 E51.83582
G1 X117.895 Y164.46 E51.90915
G1 X117.129 Y164.341 E51.98241
G1 X116.379 Y164.143 E52.05571
G1 X115.653 Y163.869 E52.12904
G1 X114.96 Y163.522 E52.20228
G1 X114.306 Y163.105 E52.27558
G1 X113.698 Y162.623 E52.3489
G1 X113.349 Y162.296 E52.39409
G1 X113.246 Y162.193 E52.40786
G1 X112.727 Y161.617 E52.48113
G1 X112.269 Y160.991 E52.55443
G1 X111.879 Y160.32 E52.62777
G1 X111.559 Y159.614 E52.70102
G1 X111.314 Y158.878 E52.77432
G1 X111.146 Y158.12 E52.84769
G1 X111.057 Y157.35 E52.92094
G1 X111.042 Y156.872 E52.96613
G1 X111.042 Y149.498 E53.66298
G1 X91.589 Y149.5 E55.50129
G1 X90.814 Y149.46 E55.57462
G1 X90.048 Y149.341 E55.64788
G1 X89.298 Y149.143 E55.72118
G1 X88.572 Y148.869 E55.79451
G1 X87.878 Y148.522 E55.86783
G1 X87.224 Y148.106 E55.94108
G1 X86.616 Y147.624 E56.0144
G1 X86.267 Y147.296 E56.05966
G1 X86.164 Y147.193 E56.07343
G1 X85.645 Y146.617 E56.14669
G1 X85.187 Y145.991 E56.21999
G1 X84.797 Y145.32 E56.29334
G1 X84.477 Y144.614 E56.36659
G1 X84.232 Y143.878 E56.43989
G1 X84.064 Y143.12 E56.51326
G1 X83.975 Y142.35 E56.58651
G1 X83.96 Y141.872 E56.6317
G1 X83.96 Y136.181 E57.1695
G1 X84 Y135.406 E57.24284
G1 X84.119 Y134.64 E57.31609
G1 X84.317 Y133.89 E57.3894
G1 X84.591 Y133.164 E57.46273
G1 X84.938 Y132.471 E57.53597
G1 X85.183 Y132.087 E57.57901
G1 X84.835 Y131.57 E57.6379
G1 X84.47 Y130.885 E57.71125
G1 X84.178 Y130.167 E57.7845
G1 X83.961 Y129.422 E57.85783
G1 X83.822 Y128.659 E57.93112
G1 X83.76 Y127.694 E58.0225
G1 X83.76 Y127.2 E58.06918
G1 X83.428 Y127.2 E58.10056
G1 X82.653 Y127.16 E58.17389
G1 X81.887 Y127.041 E58.24715
G1 X81.137 Y126.843 E58.32045
G1 X80.411 Y126.569 E58.39378
G1 X79.718 Y126.222 E58.46702
G1 X79.064 Y125.805 E58.54032
G1 X78.456 Y125.323 E58.61364
G1 X78.13 Y125.019 E58.65576
G1 X77.894 Y124.785 E58.68717
G1 X77.372 Y124.211 E58.76049
G1 X76.912 Y123.586 E58.83382
G1 X76.518 Y122.918 E58.90711
G1 X76.196 Y122.212 E58.98044
G1 X75.948 Y121.478 E59.05365
G1 X75.777 Y120.721 E59.12699
G1 X75.684 Y119.951 E59.20029
G1 X75.667 Y119.443 E59.24832
G1 X75.662 Y103.547 E60.75049
G1 X75.702 Y102.773 E60.82373
G1 X75.821 Y102.006 E60.89708
G1 X76.018 Y101.256 E60.97036
G1 X76.292 Y100.531 E61.0436
G1 X76.639 Y99.837 E61.11693
G1 X77.056 Y99.183 E61.19022
G1 X77.537 Y98.575 E61.26348
G1 X77.866 Y98.224 E61.30895
G1 X78.086 Y98.004 E61.33835
G1 X78.662 Y97.485 E61.41162
G1 X79.288 Y97.027 E61.48492
G1 X79.959 Y96.637 E61.55826
G1 X80.665 Y96.317 E61.63151
G1 X81.401 Y96.072 E61.70481
G1 X82.159 Y95.904 E61.77818
G1 X82.5 Y95.865 E61.81062
G1 X82.5 Y86.131 E62.73048
G1 X82.54 Y85.356 E62.80382
G1 X82.659 Y84.59 E62.87707
G1 X82.857 Y83.84 E62.95037
G1 X83.131 Y83.114 E63.0237
G1 X83.478 Y82.421 E63.09694
G1 X83.895 Y81.767 E63.17024
G1 X84.377 Y81.159 E63.24356
G1 X84.704 Y80.81 E63.28876
G0 F4320 X84.952 Y81.058
G1 F1800 X85.055 Y80.955 E63.30252
G1 X85.618 Y80.448 E63.37412
G1 X86.231 Y80.004 E63.44565
G1 X86.888 Y79.626 E63.51728
G1 X87.58 Y79.32 E63.58878
G1 X88.302 Y79.089 E63.66041
G1 X89.043 Y78.935 E63.73193
G1 X90.128 Y78.853 E63.83476
G1 X106.853 Y78.853 E65.41527
G1 X106.853 Y70.128 E66.23978
G1 X106.893 Y69.372 E66.31133
G1 X107.012 Y68.624 E66.3829
G1 X107.21 Y67.893 E66.45447
G1 X107.484 Y67.186 E66.52612
G1 X107.83 Y66.513 E66.59763
G1 X108.246 Y65.88 E66.66921
G1 X108.955 Y65.055 E66.77201
G1 X109.058 Y64.952 E66.78578
G1 X109.621 Y64.445 E66.85737
G1 X110.234 Y64.001 E66.9289
G1 X110.891 Y63.623 E67.00053
G1 X111.583 Y63.317 E67.07203
G1 X112.305 Y63.086 E67.14367
G1 X113.046 Y62.932 E67.21519
G1 X114.131 Y62.85 E67.31801
G1 X124.872 Y62.85 E68.33304
G1 X125.628 Y62.89 E68.40458
G1 X126.376 Y63.009 E68.47616
G1 X127.107 Y63.207 E68.54772
G1 X127.814 Y63.481 E68.61938
G1 X128.487 Y63.827 E68.69089
G1 X129.12 Y64.243 E68.76247
G1 X129.945 Y64.952 E68.86527
G1 X130.048 Y65.055 E68.87903
G1 X130.555 Y65.618 E68.95063
G1 X130.999 Y66.231 E69.02216
G1 X131.377 Y66.888 E69.09378
G1 X131.683 Y67.58 E69.16529
G1 X131.914 Y68.302 E69.23692
G1 X132.068 Y69.043 E69.30844
G1 X132.15 Y70.128 E69.41127
G1 X132.15 Y96.872 E71.93858
G1 X132.11 Y97.628 E72.01012
G1 X131.991 Y98.376 E72.08169
G1 X131.793 Y99.107 E72.15326
G1 X131.621 Y99.55 E72.19817
G1 X139.51 Y99.55 E72.94368
G1 X140.266 Y99.59 E73.01522
G1 X141.014 Y99.709 E73.0868
G1 X141.745 Y99.907 E73.15837
G1 X142.452 Y100.181 E73.23002
G1 X143.125 Y100.527 E73.30153
G1 X143.758 Y100.943 E73.37311
G1 X144.583 Y101.652 E73.47591
G1 X144.686 Y101.755 E73.48967
G1 X145.193 Y102.318 E73.56127
G1 X145.637 Y102.931 E73.6328
G1 X146.015 Y103.588 E73.70443
G1 X146.321 Y104.28 E73.77593
G1 X146.552 Y105.002 E73.84757
G1 X146.706 Y105.743 E73.91909
G1 X146.788 Y106.828 E74.02191
G1 X146.788 Y117.572 E75.03722
G1 X146.748 Y118.328 E75.10876
G1 X146.629 Y119.076 E75.18034
G1 X146.431 Y119.807 E75.2519
G1 X146.157 Y120.514 E75.32356
G1 X145.811 Y121.187 E75.39507
G1 X145.395 Y121.82 E75.46665
G1 X144.686 Y122.645 E75.56945
G1 X144.583 Y122.748 E75.58321
G1 X144.02 Y123.255 E75.65481
G1 X143.407 Y123.699 E75.72634
G1 X142.75 Y124.077 E75.79797
G1 X142.058 Y124.383 E75.86947
G1 X141.336 Y124.614 E75.9411
G1 X140.595 Y124.768 E76.01262
G1 X139.51 Y124.85 E76.11545
G1 X128.215 Y124.85 E77.18283
G1 X127.459 Y124.81 E77.25437
